X:1
T:Every Day Will I Bless Thee
T:James McGranahan, 1883
T:Every Day Will I Bless Thee
T:Public Domain, 
T:Public Domain, 
C:James McGranahan, 1883
Z:Public Domain,
%%score ( 1 2 ) ( 3 4 )
L:1/8
M:4/4
K:F
V:1 treble 
V:2 treble 
V:3 bass 
V:4 bass 
V:1
 C2 C2 [CF]2 [FA]2 [Fc]2 | [Ec]2 [EB]2 [EG]2 [GB]2 | [FA]2 [CF]2 [CE]2 (CF) | [EG]6 C2 | %4
w: 1.~My Sav- ior’s prais- es|sing, And all His|love ex- press; Whose *|cies each|
w: 2.~Re- deemed by His al-|power, My Sav- ior|and my King; My *|fi- dence|
w: 3.~On Thee a- lone, my|God, My stead- fast|hopes de- pend; And *|Thy ho-|
w: 4.~O grant Thy Ho- ly|grace, And aid my|fee- ble powers, That *|ly I|
 C2 [CF]2 [FA]2 [Fc]2 | [Ec]2 [EB]2 [EG]2 [GB]2 | [FA]2 F2 [EG]3 [CF] | [CF]6 x2 || %8
w: turn- ing day Pro-|His faith- ful- ness.|||
w: Him I place, To|my soul would cling.|||
w: will my soul Sub-|sive- ly would bend.|||
w: fol- low Thee Thro’|my fu- ture hours.|||
"^Refrain" A>A x4 | A4 [^CE]2 [EG]2 | [EG]2 [DF]4 c>c | c4 [EG]2 [GB]2 | [GB]2 [FA]4 C2 | %13
w: |||||
w: |||||
w: |||||
w: |||||
 C2 [CF]2 [FA]2 [Fc]2 | [Fc]2 [FB]2 [Fd]2 [FB]2 | [FA]4 [EB]2 [CG]2 | [CG]2 [CF]4 x2 |] x6 |] %18
w: |||||
w: |||||
w: |||||
w: |||||
V:2
 C2 C2 x6 | x8 | x6 F2 | x6 C2 | C2 x6 | x8 | x2 F2 x4 | x8 || A>A x4 | A4 x4 | x6 c>c | c4 x4 | %12
w: I will||mer-|re-|claim||||||||
w: might- y||con-|in|Him||||||||
w: Sav- ior,||to|ly|mis-||||||||
w: Spir- it’s||glad-|may|all||||||||
 x6 C2 | C2 x6 | x8 | x8 | x8 |] x6 |] %18
w: ||||||
w: ||||||
w: ||||||
w: ||||||
V:3
 [F,A,]2 x8 | [F,A,]2 [F,A,]2 [F,C]2 [F,A,]2 | [C,G,]2 [C,G,]2 [C,C]2 [C,C]2 | %3
w: ~|~ ~ ~ ~|~ ~ ~ ~|
 [F,C]2 [A,C]2 [G,B,]2 [F,A,]2 | [C,C]6 [E,B,]2 | [F,A,]2 [F,A,]2 [F,C]2 [F,A,]2 | %6
w: ~ ~ ~ ~|~ ~|~ ~ ~ ~|
 [C,G,]2 [C,G,]2 [C,C]2 [C,C]2 | [F,C]2 [F,A,]2 [C,B,]3 [F,A,] || [F,A,]6 | A,>A, x6 | %10
w: ~ ~ ~ ~|~ ~ ~ ~|~|“Ev- ery|
 A,4 [A,,A,]2 [A,,A,]2 | [D,A,]2 [D,A,]4 C>C | C4 [C,C]2 [C,C]2 | [F,C]2 [F,C]4 [F,A,]2 | %14
w: I bless Thee!|ery day will I|And I will|will praise Thy|
 [F,A,]2 [F,A,]2 [F,C]2 [A,_E]2 | [B,D]2 [B,,D]2 [B,,B,]2 [B,,D]2 | [C,C]4 [C,G,]2 [C,B,]2 |] %17
w: name For ev- er|and ev- er!” *||
 [F,B,]2 [F,A,]4 |] %18
w: |
V:4
 x10 | x8 | x8 | x8 | x8 | x8 | x8 | x8 || x6 | A,>A, x6 | A,4 x4 | x6 C>C | C4 x4 | x8 | x8 | x8 | %16
w: |||||||||day will|Ev-|bless Thee!|praise,||||
 x8 |] x6 |] %18
w: ||

